src/assets/duotone/ProfileDelete.svg

<svg width="24" height="24" viewBox="0 0 24 24"  xmlns="http://www.w3.org/2000/svg">
<path d="M12 2C9.38 2 7.25 4.13 7.25 6.75C7.25 9.32 9.26 11.4 11.88 11.49C11.96 11.48 12.04 11.48 12.1 11.49C12.12 11.49 12.13 11.49 12.15 11.49C12.16 11.49 12.16 11.49 12.17 11.49C14.73 11.4 16.74 9.32 16.75 6.75C16.75 4.13 14.62 2 12 2Z" />
<path opacity="0.4" d="M17.08 14.1499C14.29 12.2899 9.73996 12.2899 6.92996 14.1499C5.65996 14.9999 4.95996 16.1499 4.95996 17.3799C4.95996 18.6099 5.65996 19.7499 6.91996 20.5899C8.31996 21.5299 10.16 21.9999 12 21.9999C13.84 21.9999 15.68 21.5299 17.08 20.5899C18.34 19.7399 19.04 18.5999 19.04 17.3599C19.03 16.1299 18.34 14.9899 17.08 14.1499Z" />
<path d="M13.0598 17.3802L13.9398 16.5002C14.2298 16.2102 14.2298 15.7302 13.9398 15.4402C13.6498 15.1502 13.1698 15.1502 12.8798 15.4402L11.9998 16.3202L11.1198 15.4402C10.8298 15.1502 10.3498 15.1502 10.0598 15.4402C9.76979 15.7302 9.76979 16.2102 10.0598 16.5002L10.9398 17.3802L10.0598 18.2602C9.76979 18.5502 9.76979 19.0302 10.0598 19.3202C10.2098 19.4702 10.3998 19.5402 10.5898 19.5402C10.7798 19.5402 10.9698 19.4702 11.1198 19.3202L11.9998 18.4402L12.8798 19.3202C13.0298 19.4702 13.2198 19.5402 13.4098 19.5402C13.5998 19.5402 13.7898 19.4702 13.9398 19.3202C14.2298 19.0302 14.2298 18.5502 13.9398 18.2602L13.0598 17.3802Z" />
</svg>

<?xml version="1.0" encoding="UTF-8"?>
<svg width="24" height="24" viewBox="0 0 24 24" xmlns="http://www.w3.org/2000/svg">
 <path d="m12 2c-2.62 0-4.75 2.13-4.75 4.75 0 2.57 2.01 4.65 4.63 4.74 0.08-0.01 0.16-0.01 0.22 0h0.05 0.02c2.56-0.09 4.57-2.17 4.58-4.74 0-2.62-2.13-4.75-4.75-4.75z"/>
 <path d="m17.08 14.15c-2.79-1.86-7.34-1.86-10.15 0-1.27 0.85-1.97 2-1.97 3.23s0.7 2.37 1.96 3.21c1.4 0.94 3.24 1.41 5.08 1.41s3.68-0.47 5.08-1.41c1.26-0.85 1.96-1.99 1.96-3.23-0.01-1.23-0.7-2.37-1.96-3.21z" opacity=".4"/>
 <path d="m13.06 17.38 0.88-0.88c0.29-0.29 0.29-0.77 0-1.06s-0.77-0.29-1.06 0l-0.88 0.88-0.88-0.88c-0.29-0.29-0.77-0.29-1.06 0-0.29001 0.29-0.29001 0.77 0 1.06l0.88 0.88-0.88 0.88c-0.29001 0.29-0.29001 0.77 0 1.06 0.15 0.15 0.34 0.22 0.53 0.22s0.38-0.07 0.53-0.22l0.88-0.88 0.88 0.88c0.15 0.15 0.34 0.22 0.53 0.22s0.38-0.07 0.53-0.22c0.29-0.29 0.29-0.77 0-1.06l-0.88-0.88z"/>
</svg>
